html/assets/images/dynamic/business-enabler-3.svg

<svg width="70" height="68" viewBox="0 0 70 68" fill="none" xmlns="http://www.w3.org/2000/svg">
<path d="M70 34.4092H9.54545C5.15455 34.4092 1.59091 37.9728 1.59091 42.3637C1.59091 46.7546 5.15455 50.3183 9.54545 50.3183H60.4545C64.8455 50.3183 68.4091 53.8819 68.4091 58.2728C68.4091 62.6637 64.8455 66.2274 60.4545 66.2274H0" stroke="#00999A" stroke-width="2" stroke-linejoin="round"/>
<path d="M9.54519 28.0455V13.7273H4.77246L12.727 1L20.6816 13.7273H15.9088V21.6818" stroke="#00999A" stroke-width="2" stroke-linejoin="round"/>
<path d="M31.8176 28.0455V13.7273H27.0449L34.9995 1L42.954 13.7273H38.1813V21.6818" stroke="#00999A" stroke-width="2" stroke-linejoin="round"/>
<path d="M54.0911 28.0455V13.7273H49.3184L57.2729 1L65.2275 13.7273H60.4547V21.6818" stroke="#00999A" stroke-width="2" stroke-linejoin="round"/>
</svg>

<svg width="70" height="68" fill="none" xmlns="http://www.w3.org/2000/svg"><path d="M70 34.41H9.545a7.957 7.957 0 00-7.954 7.954 7.958 7.958 0 007.954 7.954h50.91a7.957 7.957 0 017.954 7.955 7.957 7.957 0 01-7.955 7.954H0m9.545-38.181v-14.32H4.772L12.727 1l7.955 12.727h-4.773v7.955m15.909 6.364v-14.32h-4.773L34.999 1l7.955 12.727h-4.773v7.955m15.91 6.364v-14.32h-4.773L57.273 1l7.955 12.727h-4.773v7.955" stroke="#00999A" stroke-width="2" stroke-linejoin="round"/></svg>
